src/lib/packages/icons/src/assets/filled/scissors.svg

<svg width="24" height="24" viewBox="0 0 24 24" fill="none" xmlns="http://www.w3.org/2000/svg">
<path d="M20.53 19.47C20.823 19.763 20.823 20.238 20.53 20.531C20.384 20.677 20.192 20.751 20 20.751C19.808 20.751 19.616 20.678 19.47 20.531L12 13.061L8.94202 16.119C9.29102 16.663 9.5 17.307 9.5 18C9.5 19.93 7.93 21.5 6 21.5C4.07 21.5 2.5 19.93 2.5 18C2.5 16.07 4.07 14.5 6 14.5C6.694 14.5 7.33698 14.709 7.88098 15.058L10.939 12L7.88098 8.94199C7.33698 9.29099 6.693 9.5 6 9.5C4.07 9.5 2.5 7.93 2.5 6C2.5 4.07 4.07 2.5 6 2.5C7.93 2.5 9.5 4.07 9.5 6C9.5 6.694 9.29102 7.33701 8.94202 7.88101L12.53 11.469L20.53 19.47ZM14.5 10.25C14.692 10.25 14.884 10.177 15.03 10.03L20.53 4.53C20.823 4.237 20.823 3.76199 20.53 3.46899C20.237 3.17599 19.762 3.17599 19.469 3.46899L13.969 8.96899C13.676 9.26199 13.676 9.737 13.969 10.03C14.116 10.177 14.308 10.25 14.5 10.25Z" fill="currentColor"/>
</svg>

<svg xmlns="http://www.w3.org/2000/svg" width="24" height="24" fill="none"><path fill="currentColor" d="M20.53 19.47a.75.75 0 0 1-1.06 1.061L12 13.061l-3.058 3.058c.349.544.558 1.188.558 1.881 0 1.93-1.57 3.5-3.5 3.5S2.5 19.93 2.5 18s1.57-3.5 3.5-3.5c.694 0 1.337.209 1.881.558L10.939 12 7.881 8.942A3.474 3.474 0 0 1 6 9.5C4.07 9.5 2.5 7.93 2.5 6S4.07 2.5 6 2.5 9.5 4.07 9.5 6c0 .694-.209 1.337-.558 1.881l3.588 3.588 8 8.001Zm-6.03-9.22a.744.744 0 0 0 .53-.22l5.5-5.5a.75.75 0 1 0-1.061-1.061l-5.5 5.5a.75.75 0 0 0 .531 1.281Z"/></svg>
